X: 38343
T: Stage Stop, The
R: slip jig
M: 9/8
K: Bminor
|:FBd cBA BAF|A2B zBA B2A|FBd cBA Bcd|e3 edc A2B|
FBd cBA BAF|A2B zBA F2E|D3 DEF FED|E3 EFA B2A:|
|:B2f edB dBA|A2B zBA B2A|B2f edB def|a2e -e2f edc|
B2f edB dBA|A2B zBA F2E|D3 DEF FED|E3 EFA B2A:|

